build/category/ChartOutline.svg

<svg xmlns="http://www.w3.org/2000/svg" fill="none" viewBox="0 0 24 24" focusable="false"><path d="M0 0H24V24H0z"/><path fill="#74767B" fill-rule="evenodd" d="M19.0281 18.6972L19.0281 10.9909C19.0281 9.91399 18.1551 9.04094 17.0781 9.04094C16.0011 9.04094 15.1281 9.91399 15.1281 10.9909L15.1281 18.6972L13.9501 18.6972L13.9501 15.5534C13.9501 14.4765 13.077 13.6034 12.0001 13.6034C10.9231 13.6034 10.0501 14.4765 10.0501 15.5534L10.0501 18.6972L8.87197 18.6972L8.87197 12.9909C8.87197 11.914 7.99892 11.0409 6.92197 11.0409C5.84501 11.0409 4.97197 11.914 4.97197 12.9909L4.97197 18.6972L3.93369 18.6972C3.57471 18.6972 3.28369 18.9882 3.28369 19.3472C3.28369 19.7062 3.57471 19.9972 3.93369 19.9972L5.92149 19.9972C5.92165 19.9972 5.92133 19.9972 5.92149 19.9972L7.92197 19.9972C7.9222 19.9972 7.92174 19.9972 7.92197 19.9972L10.9992 19.9972C10.9995 19.9972 10.9989 19.9972 10.9992 19.9972L13.0001 19.9972C13.0004 19.9972 13.0008 19.9972 13.0011 19.9972L16.0769 19.9972C16.0773 19.9972 16.0777 19.9972 16.0781 19.9972L18.0781 19.9972C18.0785 19.9972 18.0789 19.9972 18.0794 19.9972L20.0665 19.9972C20.4255 19.9972 20.7165 19.7062 20.7165 19.3472C20.7165 18.9882 20.4255 18.6972 20.0665 18.6972L19.0281 18.6972ZM17.7281 18.6972L17.7281 10.9909C17.7281 10.632 17.4371 10.3409 17.0781 10.3409C16.7191 10.3409 16.4281 10.632 16.4281 10.9909L16.4281 18.6972L17.7281 18.6972ZM6.27197 18.6972L6.27197 12.9909C6.27197 12.632 6.56298 12.3409 6.92197 12.3409C7.28095 12.3409 7.57197 12.632 7.57197 12.9909L7.57197 18.6972L6.27197 18.6972ZM11.3501 18.6972L12.6501 18.6972L12.6501 15.5534C12.6501 15.1945 12.3591 14.9034 12.0001 14.9034C11.6411 14.9034 11.3501 15.1945 11.3501 15.5534L11.3501 18.6972Z"/><path fill="#74767B" fill-rule="evenodd" d="M19.0781 5.69092C19.0781 6.79549 18.1827 7.69092 17.0781 7.69092C16.7419 7.69092 16.4251 7.60798 16.1471 7.46145L13.8606 9.58062C13.8549 9.56614 13.849 9.55174 13.8429 9.53743C13.9441 9.7767 14.0001 10.0398 14.0001 10.3159C14.0001 11.4205 13.1047 12.3159 12.0001 12.3159C10.8955 12.3159 10.0001 11.4205 10.0001 10.3159C10.0001 10.2509 10.0032 10.1866 10.0093 10.1232L8.25504 9.18188C7.90124 9.49844 7.43408 9.69092 6.92196 9.69092C5.81739 9.69092 4.92196 8.79549 4.92196 7.69092C4.92196 6.58635 5.81739 5.69092 6.92196 5.69092C8.02653 5.69092 8.92196 6.58635 8.92196 7.69092C8.92196 7.81259 8.9111 7.93173 8.89028 8.04741L10.5503 8.93817C10.5179 8.97224 10.4867 9.00745 10.4568 9.04373C10.8236 8.59924 11.3788 8.31592 12.0001 8.31592C12.3705 8.31592 12.7173 8.41659 13.0148 8.59206C13.0148 8.59206 13.0148 8.59206 13.0148 8.59206L15.2554 6.51538C15.1415 6.26399 15.0781 5.98486 15.0781 5.69092C15.0781 4.58635 15.9735 3.69092 17.0781 3.69092C18.1827 3.69092 19.0781 4.58635 19.0781 5.69092ZM17.7781 5.69092C17.7781 6.07752 17.4647 6.39092 17.0781 6.39092C16.6915 6.39092 16.3781 6.07752 16.3781 5.69092C16.3781 5.30432 16.6915 4.99092 17.0781 4.99092C17.4647 4.99092 17.7781 5.30432 17.7781 5.69092ZM7.62196 7.69092C7.62196 8.07752 7.30856 8.39092 6.92196 8.39092C6.53536 8.39092 6.22196 8.07752 6.22196 7.69092C6.22196 7.30432 6.53536 6.99092 6.92196 6.99092C7.30856 6.99092 7.62196 7.30432 7.62196 7.69092ZM12.0001 11.0159C12.3867 11.0159 12.7001 10.7025 12.7001 10.3159C12.7001 9.92932 12.3867 9.61592 12.0001 9.61592C11.6135 9.61592 11.3001 9.92932 11.3001 10.3159C11.3001 10.7025 11.6135 11.0159 12.0001 11.0159Z"/><path fill="#74767B" fill-rule="evenodd" d="M19.0781 5.69092C19.0781 6.79549 18.1827 7.69092 17.0781 7.69092C16.7419 7.69092 16.4251 7.60798 16.1471 7.46145L13.8606 9.58062C13.8549 9.56614 13.849 9.55174 13.8429 9.53743C13.9441 9.7767 14.0001 10.0398 14.0001 10.3159C14.0001 11.4205 13.1047 12.3159 12.0001 12.3159C10.8955 12.3159 10.0001 11.4205 10.0001 10.3159C10.0001 10.2509 10.0032 10.1866 10.0093 10.1232L8.25504 9.18188C7.90124 9.49844 7.43408 9.69092 6.92196 9.69092C5.81739 9.69092 4.92196 8.79549 4.92196 7.69092C4.92196 6.58635 5.81739 5.69092 6.92196 5.69092C8.02653 5.69092 8.92196 6.58635 8.92196 7.69092C8.92196 7.81259 8.9111 7.93173 8.89028 8.04741L10.5503 8.93817C10.5179 8.97224 10.4867 9.00745 10.4568 9.04373C10.8236 8.59924 11.3788 8.31592 12.0001 8.31592C12.3705 8.31592 12.7173 8.41659 13.0148 8.59206C13.0148 8.59206 13.0148 8.59206 13.0148 8.59206L15.2554 6.51538C15.1415 6.26399 15.0781 5.98486 15.0781 5.69092C15.0781 4.58635 15.9735 3.69092 17.0781 3.69092C18.1827 3.69092 19.0781 4.58635 19.0781 5.69092ZM17.7781 5.69092C17.7781 6.07752 17.4647 6.39092 17.0781 6.39092C16.6915 6.39092 16.3781 6.07752 16.3781 5.69092C16.3781 5.30432 16.6915 4.99092 17.0781 4.99092C17.4647 4.99092 17.7781 5.30432 17.7781 5.69092ZM7.62196 7.69092C7.62196 8.07752 7.30856 8.39092 6.92196 8.39092C6.53536 8.39092 6.22196 8.07752 6.22196 7.69092C6.22196 7.30432 6.53536 6.99092 6.92196 6.99092C7.30856 6.99092 7.62196 7.30432 7.62196 7.69092ZM12.0001 11.0159C12.3867 11.0159 12.7001 10.7025 12.7001 10.3159C12.7001 9.92932 12.3867 9.61592 12.0001 9.61592C11.6135 9.61592 11.3001 9.92932 11.3001 10.3159C11.3001 10.7025 11.6135 11.0159 12.0001 11.0159Z"/></svg>

<svg xmlns="http://www.w3.org/2000/svg" fill="none" viewBox="0 0 24 24" focusable="false"><g fill="#74767B" fill-rule="evenodd"><path d="M19.02 18.69v-7.7c0-1.08-.87-1.95-1.95-1.95-1.07 0-1.95.87-1.95 1.95v7.7h-1.17v-3.14c0-1.08-.88-1.95-1.95-1.95-1.08 0-1.95.87-1.95 1.95v3.14H8.87v-5.7c0-1.08-.88-1.95-1.95-1.95-1.08 0-1.95.87-1.95 1.95v5.7H3.93c-.36 0-.65.29-.65.65s.29.65.65.65h16.13c.36 0 .65-.29.65-.65s-.29-.65-.65-.65zm-1.3 0v-7.7c0-.36-.29-.65-.65-.65s-.65.29-.65.65v7.7zm-11.45 0v-5.7c0-.36.29-.65.65-.65s.65.29.65.65v5.7zm5.08 0h1.29v-3.14c0-.36-.29-.65-.64-.65-.36 0-.65.29-.65.65z"/><path d="M19.07 5.69a2 2 0 0 1-2 2c-.33 0-.65-.09-.93-.23l-2.28 2.12c-.01-.02-.02-.03-.02-.05A2 2 0 0 1 12 12.31c-1.11 0-2-.89-2-2v-.19l-1.75-.94c-.35.31-.82.51-1.33.51a2 2 0 0 1-2-2c0-1.11.89-2 2-2a2 2 0 0 1 1.97 2.35l1.66.89A1.986 1.986 0 0 1 12 8.31c.37 0 .71.1 1.01.28l2.24-2.08c-.11-.25-.18-.53-.18-.82a2 2 0 0 1 2-2c1.11 0 2 .89 2 2m-1.3 0c0 .38-.31.7-.7.7-.38 0-.7-.32-.7-.7 0-.39.32-.7.7-.7.39 0 .7.31.7.7m-10.15 2c0 .38-.32.7-.7.7-.39 0-.7-.32-.7-.7 0-.39.31-.7.7-.7.38 0 .7.31.7.7M12 11.01c.38 0 .7-.31.7-.7s-.32-.7-.7-.7c-.39 0-.7.31-.7.7s.31.7.7.7"/></g></svg>
